X:87
%%vocalfont Baskerville10Pro 11
%%pagewidth 7.5in
%%score 1 2
T:Walking in a country town
M:2/4
L:1/8
K:F
%%score 1 2
V:1 clef-treble
V:2 clef-bass octave=-1
V:1
[K:treble][F,D]E[DF]G|A>GA[Fd]&D3x|[G^c][Ad][Bd][Ec]|[Fd]2!>!d2|DEFG&x2D2|
w:Walking* in a meadow* green, For recre-*a-tion's sake, To drive a-way some
V:2
D,2DE|F>EFB|EFGA|D2!>!d2|F2D2|
V:1
([EA]>[DG])[^CA][Dd]|[G^C][Fd] dc&x2E2|d2!>!d2&F2d>c|"^sf"[Be]>[Ad][Gc][FB]|[EB]2[FA][FB]|
w:sad thoughts* That sorrow-full did me make, I spied two love-ly lo-vers, Did
V:2
C>B,A,F|EDA2|D2 [K:treble]b>a|gfed [K:bass]|(c2F)G|
V:1
[Fc][Fd] cG&x2E2|[FA]3A|c(=B/c/) dc&F4|[FA]2AG/F/&x2D2|[^CE]>D[CE][A,C]|[A,D]4||
w:hear each o-ther's woe, To 'point a* place of meet-ing Up-*on the meadow* brow.
V:2
ABc2|F4|A2BA|d>c B>A|[GA]>[FA][A,G]2|[DF]4||

